brandFactory_export/3.Masa/Cartera _3Masa.svg

<?xml version="1.0" encoding="UTF-8"?>
<svg width="24px" height="24px" viewBox="0 0 24 24" version="1.1" xmlns="http://www.w3.org/2000/svg" xmlns:xlink="http://www.w3.org/1999/xlink">
    <title>3.Masa/Cartera _3Masa</title>
    <g id="Symbols" stroke="none" stroke-width="1" fill="none" fill-rule="evenodd">
        <g id="3.Masa/Cartera-_3Masa" fill="#5CB615" fill-rule="nonzero">
            <path d="M22.1647059,15.902521 L22.1647059,12.4369748 C22.1647059,12.2857143 22.0436975,12.1613445 21.8957983,12.1613445 L12.3394958,12.1613445 C11.3310924,12.1613445 10.507563,13.005042 10.507563,14.0403361 L10.507563,14.2957983 C10.507563,15.3310924 11.3277311,16.1747899 12.3394958,16.1747899 L21.8957983,16.1747899 C22.0436975,16.1781513 22.1647059,16.0537815 22.1647059,15.902521 L22.1647059,15.902521 Z M3.28739496,5.63361345 C3.28739496,5.6605042 3.27731092,5.68067227 3.27394958,5.70420168 L18.5176471,5.70756303 L18.5176471,4.18823529 C18.5176471,4.01008403 18.3596639,3.86218487 18.1680672,3.86218487 L17.8252101,3.88907563 L17.8184874,3.88907563 L3.68403361,4.90084034 C3.44201681,4.90420168 3.28403361,5.05210084 3.28403361,5.22689076 L3.28403361,5.63361345 L3.28739496,5.63361345 Z M1.84537815,5.1697479 C1.8789916,4.19831933 2.66554622,3.41512605 3.63697479,3.41512605 L17.0991597,2.45042017 L17.0991597,1.55294118 L3.02857143,2.54453782 C2.57478992,2.54789916 2.19159664,2.7092437 1.90588235,3.00504202 C1.62016807,3.30084034 1.46218487,3.6907563 1.46218487,4.10756303 L1.46218487,4.14789916 C1.46218487,4.52436975 1.60336134,4.88403361 1.84537815,5.1697479 Z M21.8957983,10.6756303 C22.8436975,10.6756303 23.6134454,11.4655462 23.6134454,12.4403361 L23.6134454,15.9058824 C23.6134454,16.8773109 22.8436975,17.6672269 21.8957983,17.6672269 L21.7915966,17.6672269 L21.794958,19.5831933 C21.794958,20.3966387 21.4890756,21.1630252 20.9277311,21.7378151 C20.3663866,22.3159664 19.6201681,22.6319328 18.8302521,22.6319328 L2.97478992,22.6386555 C2.08067227,22.6319328 1.29747899,22.302521 0.759663866,21.7176471 C0.225210084,21.1327731 -0.0336134454,20.3428571 0.0134453782,19.4285714 L0.0134453782,4.10756303 C0.0134453782,3.29411765 0.322689076,2.52773109 0.880672269,1.95294118 C1.44201681,1.37815126 2.18487395,1.05882353 2.97815126,1.05882353 L17.7714286,0.0168067227 C17.9865546,0.0100840336 18.1680672,0.0739495798 18.3159664,0.21512605 C18.4638655,0.356302521 18.5445378,0.551260504 18.5445378,0.759663866 L18.5445378,2.43361345 C19.3680672,2.61848739 19.9630252,3.33781513 19.9630252,4.19159664 L19.9630252,5.92268908 C20.3731092,6.07394958 20.7361345,6.30588235 21.0252101,6.62184874 C21.5596639,7.20672269 21.8151261,8 21.7680672,8.9210084 L21.7714286,10.6789916 L21.8957983,10.6789916 L21.8957983,10.6756303 Z M12.5714286,13.0689076 C13.2168067,13.0689076 13.7378151,13.6067227 13.7378151,14.2689076 C13.7378151,14.9310924 13.2168067,15.4689076 12.5714286,15.4689076 C11.9260504,15.4689076 11.4050259,14.9310924 11.4050259,14.2689076 C11.4016807,13.6067227 11.9260504,13.0689076 12.5714286,13.0689076 Z" id="Cartera-_3Masa"></path>
        </g>
    </g>
</svg>

<svg width="24" height="24" viewBox="0 0 24 24" xmlns="http://www.w3.org/2000/svg"><path d="M22.165 15.903v-3.466a.273.273 0 00-.27-.276H12.34c-1.008 0-1.831.844-1.831 1.88v.255c0 1.035.82 1.879 1.831 1.879h9.557a.268.268 0 00.269-.272zM3.287 5.633c0 .028-.01.048-.013.071l15.244.004v-1.52c0-.178-.158-.326-.35-.326l-.343.027h-.007L3.684 4.901c-.242.003-.4.151-.4.326v.407h.003zM1.845 5.17c.034-.972.82-1.755 1.792-1.755l13.462-.965v-.897l-14.07.992c-.454.003-.837.164-1.123.46a1.576 1.576 0 00-.444 1.103v.04c0 .376.141.736.383 1.022zm20.05 5.506c.949 0 1.718.79 1.718 1.764v3.466c0 .971-.77 1.761-1.717 1.761h-.104l.003 1.916c0 .814-.306 1.58-.867 2.155a2.905 2.905 0 01-2.098.894l-15.855.007c-.894-.007-1.678-.336-2.215-.921-.535-.585-.794-1.375-.747-2.29V4.109c0-.814.31-1.58.868-2.155a2.913 2.913 0 012.097-.894L17.771.017a.721.721 0 01.545.198.746.746 0 01.229.545v1.674a1.802 1.802 0 011.418 1.758v1.73c.41.152.773.384 1.062.7.535.585.79 1.378.743 2.299l.003 1.758h.125v-.003zm-9.324 2.393c.646 0 1.167.538 1.167 1.2 0 .662-.521 1.2-1.167 1.2-.645 0-1.166-.538-1.166-1.2-.003-.662.521-1.2 1.166-1.2z" fill="#5CB615" fill-rule="nonzero"/></svg>
